docs/img/about/icon-4.svg

<svg width="71" height="71" viewBox="0 0 71 71" fill="none" xmlns="http://www.w3.org/2000/svg">
<g clip-path="url(#clip0)">
<path d="M51.5502 27.2437C51.5502 15.1618 40.2335 5.36865 26.2724 5.36865C12.3113 5.36865 0.994629 15.1618 0.994629 27.2437C0.994629 31.929 2.71182 36.2603 5.60904 39.819C3.98543 43.9534 1.30088 47.2265 1.26199 47.2729C1.13113 47.428 1.04357 47.6228 1.01013 47.8333C0.976694 48.0437 0.998858 48.2606 1.07388 48.4571C1.1489 48.6535 1.27348 48.8209 1.4322 48.9385C1.59092 49.0561 1.7768 49.1187 1.96685 49.1187C6.41234 49.1187 10.1007 47.4438 12.75 45.7034C16.6632 47.8554 21.2922 49.1187 26.2724 49.1187C40.2335 49.1187 51.5502 39.3255 51.5502 27.2437ZM24.328 40.3687V38.1415C22.9559 38.0622 21.6215 37.5235 20.5156 36.5897C20.0417 36.1892 20.0174 35.3907 20.4464 34.93L21.8743 33.3974C22.2109 33.0364 22.7116 33.02 23.1054 33.2976C23.5757 33.6284 24.1092 33.8062 24.6634 33.8062H28.0795C28.8695 33.8062 29.5136 32.9968 29.5136 32.0028C29.5136 31.1894 29.0748 30.4729 28.4478 30.2624L22.979 28.4167C20.7198 27.6538 19.1412 25.2147 19.1412 22.4845C19.1412 19.1321 21.4563 16.4087 24.3267 16.3226V14.1187C24.3267 13.5144 24.7618 13.0249 25.299 13.0249H27.2434C27.7806 13.0249 28.2156 13.5144 28.2156 14.1187V16.3458C29.5877 16.4251 30.9221 16.9624 32.028 17.8976C32.5019 18.2981 32.5262 19.0966 32.0972 19.5573L30.6693 21.0899C30.3326 21.4509 29.832 21.4673 29.4382 21.1897C28.9679 20.8575 28.4344 20.6812 27.8802 20.6812H24.4641C23.6741 20.6812 23.03 21.4905 23.03 22.4845C23.03 23.2979 23.4688 24.0144 24.0958 24.2249L29.5646 26.0706C31.8238 26.8335 33.4024 29.2726 33.4024 32.0028C33.4024 35.3565 31.0873 38.0786 28.2169 38.1647V40.3687C28.2169 40.9729 27.7818 41.4624 27.2446 41.4624H25.3002C24.763 41.4624 24.328 40.9729 24.328 40.3687ZM66.3778 57.3204C69.2774 53.7616 70.9946 49.429 70.9946 44.7437C70.9946 35.5917 64.4941 27.7632 55.2774 24.4997C55.382 25.4021 55.4391 26.3167 55.4391 27.2437C55.4391 41.7181 42.3554 53.4937 26.2724 53.4937C24.9623 53.4937 23.6814 53.3884 22.4163 53.2366C26.2481 61.0993 35.2375 66.6187 45.7169 66.6187C50.6971 66.6187 55.326 65.3554 59.2392 63.2034C61.8885 64.9438 65.5769 66.6187 70.0224 66.6187C70.4113 66.6187 70.7625 66.3575 70.9144 65.9569C71.0688 65.555 70.9946 65.0901 70.7261 64.7716C70.6884 64.7265 68.0014 61.4575 66.3778 57.3204Z" fill="white"/>
</g>
<defs>
<clipPath id="clip0">
<rect width="70" height="70" fill="white" transform="translate(0.994629 0.993652)"/>
</clipPath>
</defs>
</svg>

<svg width="71" height="71" fill="none" xmlns="http://www.w3.org/2000/svg"><g clip-path="url(#clip0)"><path d="M51.55 27.244c0-12.082-11.316-21.875-25.278-21.875-13.96 0-25.277 9.793-25.277 21.875 0 4.685 1.717 9.016 4.614 12.575-1.624 4.134-4.308 7.407-4.347 7.454-.13.155-.218.35-.252.56a1.22 1.22 0 00.064.624c.075.197.2.364.358.481.159.118.345.18.535.18 4.445 0 8.134-1.674 10.783-3.415 3.913 2.152 8.542 3.416 13.522 3.416 13.962 0 25.278-9.794 25.278-21.875zM24.328 40.369v-2.227c-1.372-.08-2.706-.619-3.812-1.552-.474-.4-.499-1.2-.07-1.66l1.428-1.533c.337-.36.838-.377 1.231-.1.47.331 1.004.51 1.558.51h3.416c.79 0 1.435-.81 1.435-1.804 0-.814-.44-1.53-1.066-1.74l-5.469-1.846c-2.26-.763-3.838-3.202-3.838-5.933 0-3.352 2.315-6.075 5.186-6.161v-2.204c0-.605.435-1.094.972-1.094h1.944c.538 0 .973.49.973 1.094v2.227c1.372.08 2.706.616 3.812 1.552.474.4.498 1.199.07 1.66l-1.429 1.532c-.336.36-.837.377-1.23.1a2.683 2.683 0 00-1.559-.509h-3.416c-.79 0-1.434.81-1.434 1.803 0 .814.439 1.53 1.066 1.74l5.469 1.847c2.259.762 3.837 3.202 3.837 5.932 0 3.353-2.315 6.076-5.185 6.162v2.204c0 .604-.435 1.093-.972 1.093H25.3c-.537 0-.972-.49-.972-1.093zm42.05 16.951c2.9-3.558 4.617-7.891 4.617-12.576 0-9.152-6.5-16.98-15.718-20.244.105.902.162 1.817.162 2.744 0 14.474-13.084 26.25-29.167 26.25-1.31 0-2.59-.106-3.856-.257 3.832 7.862 12.821 13.382 23.3 13.382 4.981 0 9.61-1.264 13.523-3.416 2.65 1.74 6.338 3.416 10.783 3.416.39 0 .74-.261.892-.662.155-.402.08-.867-.188-1.185-.038-.046-2.725-3.315-4.348-7.452z" fill="#fff"/></g><defs><clipPath id="clip0"><path fill="#fff" transform="translate(.995 .994)" d="M0 0h70v70H0z"/></clipPath></defs></svg>
